X: 103
T:Valse 2
M:3/4
L:1/4
O:France
A:Gascogne
K:C
E|:G2F|E2D|CEG|c2B|d2c|B2A|GBA|G2E:|GAB|c2G|
|:ec/2e/2 c/2g/2|AGG|ec/2e/2 c/2g/2|AGg|f2e|d2c|BAB|1deG:|c2E||
W:
W: From "Falaleiro" http://home.t-online.de/home/pheld/homepage.htm

